Newaita/actions/22/view-media-equalizer.svg

<svg height="22" viewBox="0 0 22 22" width="22" xmlns="http://www.w3.org/2000/svg"><g fill="#424242"><path d="m5.003906 4.265625v-1.820313c0-.25-.203125-.453124-.457031-.453124h-.910156c-.25 0-.453125.203124-.453125.453124v1.820313c0 .25.203125.453125.453125.453125h.910156c.253906 0 .457031-.203125.457031-.453125zm0 0"/><path d="m1.820312 6.085938c0-1.261719 1.011719-2.277344 2.273438-2.277344 1.257812 0 2.273438 1.015625 2.273438 2.277344 0 1.257812-1.015626 2.273437-2.273438 2.273437-1.261719 0-2.273438-1.015625-2.273438-2.273437zm.910157 0c0 .753906.605469 1.363281 1.363281 1.363281.753906 0 1.363281-.609375 1.363281-1.363281 0-.757813-.609375-1.367188-1.363281-1.367188-.757812 0-1.363281.609375-1.363281 1.367188zm0 0"/><path d="m5.003906 19.726562v-11.824218c0-.25-.203125-.453125-.457031-.453125h-.910156c-.25 0-.453125.203125-.453125.453125v11.824218c0 .253907.203125.457032.453125.457032h.910156c.253906 0 .457031-.203125.457031-.457032zm0 0"/><path d="m18.648438 9.269531v-6.824219c0-.25-.207032-.453124-.457032-.453124h-.910156c-.25 0-.453125.203124-.453125.453124v6.824219c0 .25.203125.453125.453125.453125h.910156c.25 0 .457032-.203125.457032-.453125zm0 0"/><path d="m15.464844 11.085938c0-1.257813 1.011718-2.273438 2.273437-2.273438 1.257813 0 2.273438 1.015625 2.273438 2.273438 0 1.261718-1.015625 2.273437-2.273438 2.273437-1.261719 0-2.273437-1.011719-2.273437-2.273437zm.90625 0c0 .757812.609375 1.367187 1.367187 1.367187.753907 0 1.363281-.609375 1.363281-1.367187 0-.753907-.609374-1.363282-1.363281-1.363282-.757812 0-1.367187.609375-1.367187 1.363282zm0 0"/><path d="m18.648438 19.726562v-6.820312c0-.25-.207032-.453125-.457032-.453125h-.910156c-.25 0-.453125.203125-.453125.453125v6.820312c0 .253907.203125.457032.453125.457032h.910156c.25 0 .457032-.203125.457032-.457032zm0 0"/><path d="m11.824219 17.910156v1.816406c0 .253907-.203125.457032-.453125.457032h-.910156c-.25 0-.457032-.203125-.457032-.457032v-1.816406c0-.253906.207032-.457031.457032-.457031h.910156c.25 0 .453125.203125.453125.457031zm0 0"/><path d="m8.640625 16.089844c0 1.257812 1.015625 2.273437 2.273437 2.273437 1.261719 0 2.273438-1.015625 2.273438-2.273437 0-1.261719-1.011719-2.273438-2.273438-2.273438-1.257812 0-2.273437 1.011719-2.273437 2.273438zm.910156 0c0-.757813.609375-1.363282 1.363281-1.363282.757813 0 1.367188.605469 1.367188 1.363282 0 .753906-.609375 1.363281-1.367188 1.363281-.753906 0-1.363281-.609375-1.363281-1.363281zm0 0"/><path d="m11.824219 2.445312v11.824219c0 .253907-.203125.457031-.453125.457031h-.910156c-.25 0-.457032-.203124-.457032-.457031v-11.824219c0-.25.207032-.453124.457032-.453124h.910156c.25 0 .453125.203124.453125.453124zm0 0"/></g></svg>

<svg xmlns="http://www.w3.org/2000/svg" xmlns:xlink="http://www.w3.org/1999/xlink" width="22px" height="22px" viewBox="0 0 22 22" version="1.1">
<g id="surface1">
     <defs>
  <style id="current-color-scheme" type="text/css">
   .ColorScheme-Text { color:#424242; } .ColorScheme-Highlight { color:#eeeeee; }
  </style>
 </defs>
<path style="fill:currentColor" class="ColorScheme-Text" d="M 5.003906 4.265625 L 5.003906 2.445312 C 5.003906 2.195312 4.800781 1.992188 4.546875 1.992188 L 3.636719 1.992188 C 3.386719 1.992188 3.183594 2.195312 3.183594 2.445312 L 3.183594 4.265625 C 3.183594 4.515625 3.386719 4.71875 3.636719 4.71875 L 4.546875 4.71875 C 4.800781 4.71875 5.003906 4.515625 5.003906 4.265625 Z M 5.003906 4.265625 "/>
     <defs>
  <style id="current-color-scheme" type="text/css">
   .ColorScheme-Text { color:#424242; } .ColorScheme-Highlight { color:#eeeeee; }
  </style>
 </defs>
<path style="fill:currentColor" class="ColorScheme-Text" d="M 1.820312 6.085938 C 1.820312 4.824219 2.832031 3.808594 4.09375 3.808594 C 5.351562 3.808594 6.367188 4.824219 6.367188 6.085938 C 6.367188 7.34375 5.351562 8.359375 4.09375 8.359375 C 2.832031 8.359375 1.820312 7.34375 1.820312 6.085938 Z M 2.730469 6.085938 C 2.730469 6.839844 3.335938 7.449219 4.09375 7.449219 C 4.847656 7.449219 5.457031 6.839844 5.457031 6.085938 C 5.457031 5.328125 4.847656 4.71875 4.09375 4.71875 C 3.335938 4.71875 2.730469 5.328125 2.730469 6.085938 Z M 2.730469 6.085938 "/>
     <defs>
  <style id="current-color-scheme" type="text/css">
   .ColorScheme-Text { color:#424242; } .ColorScheme-Highlight { color:#eeeeee; }
  </style>
 </defs>
<path style="fill:currentColor" class="ColorScheme-Text" d="M 5.003906 19.726562 L 5.003906 7.902344 C 5.003906 7.652344 4.800781 7.449219 4.546875 7.449219 L 3.636719 7.449219 C 3.386719 7.449219 3.183594 7.652344 3.183594 7.902344 L 3.183594 19.726562 C 3.183594 19.980469 3.386719 20.183594 3.636719 20.183594 L 4.546875 20.183594 C 4.800781 20.183594 5.003906 19.980469 5.003906 19.726562 Z M 5.003906 19.726562 "/>
     <defs>
  <style id="current-color-scheme" type="text/css">
   .ColorScheme-Text { color:#424242; } .ColorScheme-Highlight { color:#eeeeee; }
  </style>
 </defs>
<path style="fill:currentColor" class="ColorScheme-Text" d="M 18.648438 9.269531 L 18.648438 2.445312 C 18.648438 2.195312 18.441406 1.992188 18.191406 1.992188 L 17.28125 1.992188 C 17.03125 1.992188 16.828125 2.195312 16.828125 2.445312 L 16.828125 9.269531 C 16.828125 9.519531 17.03125 9.722656 17.28125 9.722656 L 18.191406 9.722656 C 18.441406 9.722656 18.648438 9.519531 18.648438 9.269531 Z M 18.648438 9.269531 "/>
     <defs>
  <style id="current-color-scheme" type="text/css">
   .ColorScheme-Text { color:#424242; } .ColorScheme-Highlight { color:#eeeeee; }
  </style>
 </defs>
<path style="fill:currentColor" class="ColorScheme-Text" d="M 15.464844 11.085938 C 15.464844 9.828125 16.476562 8.8125 17.738281 8.8125 C 18.996094 8.8125 20.011719 9.828125 20.011719 11.085938 C 20.011719 12.347656 18.996094 13.359375 17.738281 13.359375 C 16.476562 13.359375 15.464844 12.347656 15.464844 11.085938 Z M 16.371094 11.085938 C 16.371094 11.84375 16.980469 12.453125 17.738281 12.453125 C 18.492188 12.453125 19.101562 11.84375 19.101562 11.085938 C 19.101562 10.332031 18.492188 9.722656 17.738281 9.722656 C 16.980469 9.722656 16.371094 10.332031 16.371094 11.085938 Z M 16.371094 11.085938 "/>
     <defs>
  <style id="current-color-scheme" type="text/css">
   .ColorScheme-Text { color:#424242; } .ColorScheme-Highlight { color:#eeeeee; }
  </style>
 </defs>
<path style="fill:currentColor" class="ColorScheme-Text" d="M 18.648438 19.726562 L 18.648438 12.90625 C 18.648438 12.65625 18.441406 12.453125 18.191406 12.453125 L 17.28125 12.453125 C 17.03125 12.453125 16.828125 12.65625 16.828125 12.90625 L 16.828125 19.726562 C 16.828125 19.980469 17.03125 20.183594 17.28125 20.183594 L 18.191406 20.183594 C 18.441406 20.183594 18.648438 19.980469 18.648438 19.726562 Z M 18.648438 19.726562 "/>
     <defs>
  <style id="current-color-scheme" type="text/css">
   .ColorScheme-Text { color:#424242; } .ColorScheme-Highlight { color:#eeeeee; }
  </style>
 </defs>
<path style="fill:currentColor" class="ColorScheme-Text" d="M 11.824219 17.910156 L 11.824219 19.726562 C 11.824219 19.980469 11.621094 20.183594 11.371094 20.183594 L 10.460938 20.183594 C 10.210938 20.183594 10.003906 19.980469 10.003906 19.726562 L 10.003906 17.910156 C 10.003906 17.65625 10.210938 17.453125 10.460938 17.453125 L 11.371094 17.453125 C 11.621094 17.453125 11.824219 17.65625 11.824219 17.910156 Z M 11.824219 17.910156 "/>
     <defs>
  <style id="current-color-scheme" type="text/css">
   .ColorScheme-Text { color:#424242; } .ColorScheme-Highlight { color:#eeeeee; }
  </style>
 </defs>
<path style="fill:currentColor" class="ColorScheme-Text" d="M 8.640625 16.089844 C 8.640625 17.347656 9.65625 18.363281 10.914062 18.363281 C 12.175781 18.363281 13.1875 17.347656 13.1875 16.089844 C 13.1875 14.828125 12.175781 13.816406 10.914062 13.816406 C 9.65625 13.816406 8.640625 14.828125 8.640625 16.089844 Z M 9.550781 16.089844 C 9.550781 15.332031 10.160156 14.726562 10.914062 14.726562 C 11.671875 14.726562 12.28125 15.332031 12.28125 16.089844 C 12.28125 16.84375 11.671875 17.453125 10.914062 17.453125 C 10.160156 17.453125 9.550781 16.84375 9.550781 16.089844 Z M 9.550781 16.089844 "/>
     <defs>
  <style id="current-color-scheme" type="text/css">
   .ColorScheme-Text { color:#424242; } .ColorScheme-Highlight { color:#eeeeee; }
  </style>
 </defs>
<path style="fill:currentColor" class="ColorScheme-Text" d="M 11.824219 2.445312 L 11.824219 14.269531 C 11.824219 14.523438 11.621094 14.726562 11.371094 14.726562 L 10.460938 14.726562 C 10.210938 14.726562 10.003906 14.523438 10.003906 14.269531 L 10.003906 2.445312 C 10.003906 2.195312 10.210938 1.992188 10.460938 1.992188 L 11.371094 1.992188 C 11.621094 1.992188 11.824219 2.195312 11.824219 2.445312 Z M 11.824219 2.445312 "/>
</g>
</svg>
